img/search-icon.svg

<svg width="13" height="13" viewBox="0 0 13 13" fill="none" xmlns="http://www.w3.org/2000/svg">
<path d="M7.85981 0C5.1037 0 2.85961 2.24409 2.85961 5.0002C2.85961 6.19774 3.27963 7.29528 3.98465 8.15682L0 12.1405L0.719528 12.8605L4.70368 8.87585C5.59349 9.60534 6.70919 10.0029 7.85981 10.0004C10.6159 10.0004 12.86 7.7563 12.86 5.0002C12.86 2.24409 10.6159 0 7.85981 0ZM7.85981 1.00004C10.0749 1.00004 11.86 2.78511 11.86 5.0002C11.86 7.21528 10.0749 9.00035 7.85981 9.00035C5.64472 9.00035 3.85965 7.21528 3.85965 5.0002C3.85965 2.78511 5.64472 1.00004 7.85981 1.00004Z" fill="#111111"/>
</svg>

<svg width="13" height="13" fill="none" xmlns="http://www.w3.org/2000/svg"><path d="M7.86 0c-2.756 0-5 2.244-5 5 0 1.198.42 2.295 1.125 3.157L0 12.14l.72.72 3.984-3.984A4.961 4.961 0 0 0 7.86 10c2.756 0 5-2.244 5-5s-2.244-5-5-5Zm0 1c2.215 0 4 1.785 4 4s-1.785 4-4 4-4-1.785-4-4 1.785-4 4-4Z" fill="#111"/></svg>
